icons/action/icon_copy_m_black.svg

<?xml version="1.0" encoding="UTF-8"?>
<svg width="24px" height="24px" viewBox="0 0 24 24" version="1.1" xmlns="http://www.w3.org/2000/svg" xmlns:xlink="http://www.w3.org/1999/xlink">
    <!-- Generator: Sketch 48.2 (47327) - http://www.bohemiancoding.com/sketch -->
    <title>Slice</title>
    <desc>Created with Sketch.</desc>
    <defs></defs>
    <g id="NFS" stroke="none" stroke-width="1" fill="none" fill-rule="evenodd">
        <g id="icon_tool_copy__m__black">
            <rect id="ph" x="0" y="0" width="24" height="24"></rect>
            <path d="M10.3862828,5 L19,5 C20.1045695,5 21,5.8954305 21,7 L21,21 C21,22.1045695 20.1045695,23 19,23 L8,23 C6.8954305,23 6,22.1045695 6,21 L6,9.22409258 L10.3862828,5 Z M10.8117581,6 L7,9.77692461 L7,21 C7,21.5522847 7.44771525,22 8,22 L19,22 C19.5522847,22 20,21.5522847 20,21 L20,7 C20,6.44771525 19.5522847,6 19,6 L10.8117581,6 Z" id="Combined-Shape-Copy" fill="#0A1E32"></path>
            <path d="M17,5 L16,5 L16,3 C16,2.44771525 15.5522847,2 15,2 L6.81175809,2 L3,5.77692461 L3,17 C3,17.5522847 3.44771525,18 4,18 L6,18 L6,19 L4,19 C2.8954305,19 2,18.1045695 2,17 L2,5.22409258 L6.38628283,1 L15,1 C16.1045695,1 17,1.8954305 17,3 L17,5 Z" id="Combined-Shape" fill="#0A1E32" opacity="0.300000012"></path>
            <rect id="Rectangle" fill="#0A1E32" opacity="0.300000012" x="10" y="11" width="5" height="2"></rect>
            <rect id="Rectangle-Copy" fill="#0A1E32" opacity="0.300000012" x="10" y="15" width="7" height="2"></rect>
        </g>
    </g>
</svg>

<svg width="24" height="24" viewBox="0 0 24 24" xmlns="http://www.w3.org/2000/svg"><g fill="none" fill-rule="evenodd"><path d="M0 0h24v24H0z"/><path d="M10.386 5H19a2 2 0 0 1 2 2v14a2 2 0 0 1-2 2H8a2 2 0 0 1-2-2V9.224L10.386 5zm.426 1L7 9.777V21a1 1 0 0 0 1 1h11a1 1 0 0 0 1-1V7a1 1 0 0 0-1-1h-8.188z" fill="#0A1E32"/><path d="M17 5h-1V3a1 1 0 0 0-1-1H6.812L3 5.777V17a1 1 0 0 0 1 1h2v1H4a2 2 0 0 1-2-2V5.224L6.386 1H15a2 2 0 0 1 2 2v2z" fill="#0A1E32" opacity=".3"/><path fill="#0A1E32" opacity=".3" d="M10 11h5v2h-5zM10 15h7v2h-7z"/></g></svg>
